content/themes/dude/svg/logos/suomen-uusiutuvat.svg

<svg width="131" height="46" viewBox="0 0 131 46" fill="none" xmlns="http://www.w3.org/2000/svg">
<path d="M127.827 26.9216V30.4636H130.15V32.3218H127.827V39.3185H125.892V32.3218H124.398V30.4636H125.452C125.733 30.4636 125.892 30.3032 125.892 30.0207V26.921L127.827 26.9216ZM120.945 33.9909C121.226 33.9909 121.316 33.8305 121.316 33.6353C121.316 32.4816 120.42 32.0567 119.146 32.0567C118.352 32.0567 117.524 32.1997 117.524 33.0325C117.524 33.7202 118.031 33.9909 118.631 33.9909H120.945ZM121.316 36.1727V35.5526H118.497C117.637 35.5526 117.02 35.7822 117.02 36.5104C117.02 37.2386 117.495 37.8008 118.885 37.8008C120.067 37.8008 121.316 37.1981 121.316 36.1699V36.1727ZM115.079 36.5284C115.079 35.1271 115.821 34.4045 117.086 34.1513C117.211 34.1339 117.263 34.099 117.263 34.0258C117.263 33.9526 117.211 33.9183 117.104 33.8829C116.435 33.6707 116.015 33.2627 116.015 32.4816C116.015 31.0314 117.585 30.2683 119.256 30.2683C121.686 30.2683 123.256 31.4917 123.256 33.4754V39.3247H121.316V38.3663C120.826 38.9167 119.821 39.502 118.639 39.502C116.299 39.502 115.085 38.2785 115.085 36.525L115.079 36.5306V36.5284ZM115.18 30.4692L111.728 39.3247H109.474L105.92 30.4692H107.997L110.36 36.8953C110.448 37.1778 110.766 37.1924 110.867 36.8953L113.138 30.4692H115.18ZM104.727 30.4692V39.3247H102.792V38.314C102.421 38.7389 101.491 39.502 100.025 39.502C98.1081 39.502 96.4891 38.4417 96.4891 36.1902V30.4692H98.4295V35.7326C98.4295 36.8863 99.223 37.7372 100.524 37.7372C101.917 37.7372 102.795 36.7962 102.795 35.7326V30.4692H104.73H104.727ZM92.9725 26.9272V30.4692H95.2955V32.3274H92.9725V39.3247H91.0377V32.3274H89.543V30.4692H90.5971C90.8779 30.4692 91.0377 30.3088 91.0377 30.0263V26.9272H92.9725ZM88.3089 30.4692V39.3247H86.3742V38.314C86.0033 38.7389 85.0736 39.502 83.6077 39.502C81.6903 39.502 80.0707 38.4417 80.0707 36.1902V30.4692H82.0117V35.7326C82.0117 36.8863 82.8052 37.7372 84.1057 37.7372C85.4991 37.7372 86.377 36.7962 86.377 35.7326V30.4692H88.3117H88.3089ZM77.8259 30.4692V39.3247H75.8855V30.4692H77.8259ZM75.8186 29.0511V26.9272H77.9306V29.0505L75.8186 29.0511ZM68.2236 32.9977C68.2236 33.548 68.841 33.8626 69.9474 33.9909C71.1955 34.1513 71.6362 33.6178 71.6362 33.05C71.6362 32.3218 70.8596 31.9374 69.8894 31.9374C68.7774 31.9374 68.218 32.3623 68.218 32.9977H68.2236ZM73.3481 32.642C73.3481 33.4231 72.6818 33.848 71.8534 34.0607C71.6767 34.0956 71.6767 34.3083 71.8708 34.3432C73.2642 34.6083 74.1416 35.3365 74.1416 36.592C74.1416 38.1885 72.8585 39.4963 70.1066 39.4963C67.0942 39.4963 66.124 37.9527 66.124 36.5925H68.0588C68.0936 37.2971 68.8522 37.7631 70.0661 37.7631C71.28 37.7631 72.1432 37.3905 72.1432 36.7175C72.1432 36.0444 71.4015 35.9015 70.3615 35.7242L69.2901 35.5289C67.155 35.1738 66.2253 34.4164 66.2253 33.0849C66.2253 31.5238 67.4909 30.2683 69.8202 30.2683C71.9142 30.2683 73.3419 31.2092 73.3419 32.6454H73.3481V32.642ZM64.4903 30.4602V39.3157H62.555V38.305C62.1847 38.7304 61.2545 39.4935 59.7891 39.4935C57.8712 39.4935 56.2522 38.4333 56.2522 36.1817V30.4596H58.1931V35.7236C58.1931 36.8773 58.9866 37.7276 60.2871 37.7276C61.6805 37.7276 62.5584 36.7867 62.5584 35.7236V30.4596H64.4931H64.4903V30.4602ZM54.1086 30.4602V39.3157H52.1739V38.305C51.803 38.7304 50.8734 39.4935 49.4074 39.4935C47.4901 39.4935 45.871 38.4333 45.871 36.1817V30.4596H47.8114V35.7236C47.8114 36.8773 48.6049 37.7276 49.906 37.7276C51.2988 37.7276 52.1767 36.7867 52.1767 35.7236V30.4596H54.1115H54.1086V30.4602ZM112.692 18.6283V23.9761H110.752V18.9834C110.752 17.7425 109.941 16.7172 108.269 16.7172C106.699 16.7172 105.752 17.9232 105.752 18.9834V23.9761H103.812V15.1206H105.752V15.4937C105.752 15.8669 105.946 15.9192 106.21 15.7239C106.74 15.3334 107.603 14.9434 108.767 14.9434C111.108 14.9434 112.692 16.3795 112.692 18.6283ZM94.4874 18.7532H99.5595C99.8606 18.7532 99.9647 18.5754 99.9123 18.2929C99.7362 17.2822 98.537 16.6299 97.2708 16.6299C95.8284 16.6299 94.6641 17.2996 94.4874 18.7532ZM101.992 19.2316V19.8517C101.992 20.1342 101.833 20.294 101.552 20.294H94.4699C94.6466 21.7628 95.8808 22.4758 97.4475 22.4758C98.5195 22.4758 99.4233 22.0335 99.7531 21.2879H101.923C101.448 23.1281 99.5595 24.1568 97.4475 24.1568C93.6067 24.1568 92.4828 21.7623 92.4828 19.5309C92.4828 17.2996 93.6821 14.9462 97.2769 14.9462C100.272 14.9462 101.995 16.8393 101.995 19.2344H101.989L101.992 19.2316ZM90.7451 18.2901V23.9761H88.8098V18.5349C88.8098 17.1336 88.0512 16.7115 87.2571 16.7115C86.516 16.7115 85.7456 17.1539 85.7456 18.5349V23.9767H83.8046V18.5349C83.8046 17.1336 83.0286 16.7115 82.2345 16.7115C81.441 16.7115 80.7224 17.227 80.7224 18.5349V23.9767H78.782V15.1206H80.7224V15.4763C80.7224 15.7734 80.8991 15.8669 81.1282 15.6716C81.499 15.3339 82.1507 14.9434 82.9413 14.9434C83.8192 14.9434 84.7056 15.2405 85.2875 16.079C85.7771 15.4093 86.5711 14.9434 87.7529 14.9434C89.1288 14.9434 90.7479 15.7065 90.7479 18.2901H90.7422H90.7451ZM69.0205 19.5309C69.0205 21.1944 69.9327 22.2749 72.0504 22.2749C74.1674 22.2749 75.0802 21.1624 75.0802 19.5309C75.0802 17.9001 74.1444 16.8044 72.0504 16.8044C69.9558 16.8044 69.0205 17.9929 69.0205 19.5309ZM77.015 19.5309C77.015 21.8146 75.7494 24.1568 72.0504 24.1568C68.3514 24.1568 67.0858 21.7623 67.0858 19.5309C67.0858 17.2996 68.4442 14.9462 72.0504 14.9462C75.6565 14.9462 77.015 17.3058 77.015 19.5309ZM65.3333 15.1178V23.9733H63.398V22.9626C63.0272 23.3875 62.0975 24.1512 60.6321 24.1512C58.7142 24.1512 57.0952 23.0909 57.0952 20.8388V15.1178H59.0361V20.3818C59.0361 21.5355 59.8296 22.3852 61.1301 22.3852C62.5235 22.3852 63.4008 21.4449 63.4008 20.3818V15.1178H65.3362H65.3333ZM45.3207 20.0931H47.3972C47.4147 21.4421 48.5621 22.2749 50.3376 22.2749C52.1131 22.2749 53.3675 21.7595 53.3675 20.5946C53.3675 19.6182 52.6837 19.0504 51.3922 18.8376L49.2977 18.4651C46.8671 18.0571 45.6853 16.886 45.6853 15.0627C45.6853 13.0587 47.0264 11.3952 50.2853 11.3952C52.9792 11.3952 54.8098 12.8314 54.8098 15.0976H52.7333C52.7333 13.8916 51.78 13.2742 50.2504 13.2742C48.7208 13.2742 47.7687 13.9293 47.7687 15.0655C47.7687 16.0239 48.4693 16.4144 49.7754 16.6446L51.8002 16.9997C54.1638 17.4251 55.4469 18.6806 55.4469 20.5737C55.4469 22.5783 53.8425 24.1478 50.3753 24.1478C46.9076 24.1478 45.3207 22.45 45.3207 20.0903V20.096V20.0931ZM29.9417 9.36198C26.895 13.9355 25.7712 18.5495 27.4251 19.6621C29.0785 20.7746 32.8906 17.9699 35.9322 13.3964C38.9796 8.82342 40.1039 4.20884 38.45 3.09627C36.7955 1.98371 32.984 4.78848 29.9417 9.36198ZM18.7902 9.06484C18.7902 14.0694 20.4064 18.1269 22.3963 18.1269C24.3862 18.1269 26.0024 14.0694 26.0024 9.06484C26.0024 4.06027 24.3896 0 22.3997 0C20.4098 0 18.7936 4.05746 18.7936 9.06203L18.7908 9.06484H18.7902ZM9.64881 15.124C12.2065 18.8264 15.6073 20.8973 17.2381 19.7555C18.869 18.6131 18.1273 14.6868 15.5724 10.9878C13.0146 7.28485 9.61392 5.21392 7.98362 6.35631C6.35276 7.49757 7.09391 11.4245 9.64881 15.124ZM5.87161 25.2345C9.63137 26.5597 13.2116 26.1 13.8667 24.2063C14.524 22.3132 12.0124 19.7116 8.25037 18.3863C4.48948 17.061 0.90924 17.5214 0.254757 19.4145C-0.40254 21.3081 2.10847 23.9092 5.87104 25.2345H5.87161ZM8.63811 34.9493C11.9865 33.9853 14.26 31.6375 13.7102 29.7145C13.1598 27.7922 9.99941 27.0116 6.65102 27.9756C3.30263 28.9396 1.02911 31.288 1.57892 33.2104C2.12648 35.1327 5.28972 35.9133 8.63811 34.9493ZM16.4615 40.9415C18.2809 38.5582 18.4689 35.6398 16.8965 34.422C15.3236 33.2042 12.5661 34.1451 10.7439 36.5278C8.92511 38.9111 8.73659 41.8295 10.3095 43.0473C11.8852 44.2651 14.6399 43.3248 16.4615 40.9415ZM26.003 40.8334C26.003 38.3314 24.3868 36.301 22.3969 36.301C20.407 36.301 18.7908 38.3314 18.7908 40.8334C18.7908 43.3354 20.407 45.3659 22.3969 45.3659C24.3868 45.3659 26.003 43.3354 26.003 40.8334ZM32.8624 39.7091C32.5013 40.0158 32.0829 40.248 31.6315 40.3922C31.1801 40.5364 30.7046 40.5897 30.2325 40.5491C29.7604 40.5085 29.301 40.3747 28.8809 40.1556C28.4607 39.9365 28.0882 39.6363 27.7847 39.2724C26.5016 37.74 26.6952 35.4563 28.2191 34.1659C28.5803 33.8592 28.9987 33.627 29.45 33.4828C29.9014 33.3386 30.3769 33.2853 30.849 33.3259C31.3211 33.3665 31.7805 33.5002 32.2007 33.7194C32.6208 33.9385 32.9934 34.2387 33.2969 34.6026C34.5799 36.135 34.3858 38.4181 32.8624 39.7091Z" fill="#1C1E26"/>
</svg>

<svg class="is-bigger" viewBox="0 0 131 46" width="131" height="46" fill="none" xmlns="http://www.w3.org/2000/svg"><path d="M127.827 26.922v3.542h2.323v1.858h-2.323v6.996h-1.935v-6.996h-1.494v-1.858h1.054c.281 0 .44-.16.44-.443v-3.1h1.935zm-6.882 7.069c.281 0 .371-.16.371-.356 0-1.153-.896-1.578-2.17-1.578-.794 0-1.622.143-1.622.975 0 .688.507.959 1.107.959h2.314zm.371 2.182v-.62h-2.819c-.86 0-1.477.23-1.477.957 0 .729.475 1.29 1.865 1.29 1.182 0 2.431-.602 2.431-1.63v.003zm-6.237.355c0-1.4.742-2.123 2.007-2.377.125-.017.177-.052.177-.125 0-.073-.052-.108-.159-.143-.669-.212-1.089-.62-1.089-1.401 0-1.45 1.57-2.214 3.241-2.214 2.43 0 4 1.224 4 3.207v5.85h-1.94v-.959c-.49.55-1.495 1.136-2.677 1.136-2.34 0-3.554-1.224-3.554-2.977l-.006.006v-.003zm.101-6.059l-3.452 8.856h-2.254l-3.554-8.856h2.077l2.363 6.426c.088.283.406.297.507 0l2.271-6.426h2.042zm-10.453 0v8.856h-1.935v-1.011c-.371.425-1.301 1.188-2.767 1.188-1.917 0-3.536-1.06-3.536-3.312v-5.72h1.94v5.263c0 1.153.794 2.004 2.095 2.004 1.393 0 2.271-.94 2.271-2.004v-5.264h1.935-.003zm-11.755-3.542v3.542h2.324v1.858h-2.324v6.998h-1.934v-6.998h-1.495V30.47h1.054c.28 0 .44-.16.44-.443v-3.099h1.935zM88.31 30.47v8.856h-1.935v-1.011c-.37.425-1.3 1.188-2.766 1.188-1.918 0-3.537-1.06-3.537-3.312v-5.72h1.94v5.263c0 1.153.794 2.004 2.095 2.004 1.393 0 2.271-.94 2.271-2.004v-5.264h1.935-.003zm-10.483 0v8.856h-1.94v-8.856h1.94zm-2.007-1.418v-2.124h2.112v2.123l-2.112.001zm-7.595 3.947c0 .55.617.865 1.723.993 1.248.16 1.69-.373 1.69-.941 0-.728-.777-1.113-1.748-1.113-1.112 0-1.671.425-1.671 1.06h.006zm5.124-.356c0 .781-.666 1.206-1.495 1.419-.176.035-.176.247.018.282 1.393.265 2.27.993 2.27 2.249 0 1.596-1.282 2.904-4.034 2.904-3.013 0-3.983-1.543-3.983-2.904h1.935c.035.705.793 1.171 2.007 1.171s2.077-.372 2.077-1.045c0-.674-.742-.817-1.781-.994l-1.072-.195c-2.135-.355-3.065-1.113-3.065-2.444 0-1.561 1.266-2.817 3.595-2.817 2.094 0 3.522.941 3.522 2.377h.006v-.003zM64.49 30.46v8.856h-1.935v-1.011c-.37.425-1.3 1.188-2.766 1.188-1.918 0-3.537-1.06-3.537-3.311V30.46h1.941v5.264c0 1.153.794 2.004 2.094 2.004 1.394 0 2.271-.941 2.271-2.004V30.46h1.935-.003zm-10.381 0v8.856h-1.935v-1.011c-.371.425-1.3 1.188-2.767 1.188-1.917 0-3.536-1.06-3.536-3.311V30.46h1.94v5.264c0 1.153.794 2.004 2.095 2.004 1.393 0 2.27-.941 2.27-2.004V30.46h1.935-.002zm58.583-11.832v5.348h-1.94v-4.993c0-1.24-.811-2.266-2.483-2.266-1.57 0-2.517 1.206-2.517 2.266v4.993h-1.94v-8.855h1.94v.373c0 .373.194.425.458.23.53-.39 1.393-.78 2.557-.78 2.341 0 3.925 1.435 3.925 3.684zm-18.205.125h5.073c.3 0 .405-.178.352-.46-.176-1.01-1.375-1.663-2.641-1.663-1.443 0-2.607.67-2.784 2.123zm7.505.479v.62c0 .282-.159.442-.44.442H94.47c.177 1.469 1.41 2.182 2.978 2.182 1.072 0 1.975-.442 2.305-1.188h2.17c-.475 1.84-2.364 2.869-4.475 2.869-3.841 0-4.965-2.395-4.965-4.626 0-2.231 1.2-4.585 4.794-4.585 2.995 0 4.718 1.893 4.718 4.288h-.006l.003-.002zm-11.247-.942v5.686H88.81v-5.441c0-1.401-.759-1.823-1.553-1.823-.741 0-1.511.442-1.511 1.823v5.442h-1.941v-5.442c0-1.401-.776-1.823-1.57-1.823s-1.513.515-1.513 1.823v5.442h-1.94V15.12h1.94v.355c0 .297.177.39.406.196.371-.338 1.023-.729 1.813-.729.878 0 1.765.298 2.346 1.136.49-.67 1.284-1.136 2.466-1.136 1.376 0 2.995.764 2.995 3.347h-.006.003zM69.02 19.53c0 1.664.913 2.745 3.03 2.745s3.03-1.113 3.03-2.744c0-1.63-.936-2.727-3.03-2.727s-3.03 1.189-3.03 2.727zm7.995 0c0 2.285-1.266 4.627-4.965 4.627s-4.964-2.395-4.964-4.626c0-2.231 1.358-4.585 4.964-4.585 3.606 0 4.965 2.36 4.965 4.585zm-11.682-4.412v8.855h-1.935v-1.01c-.37.424-1.3 1.188-2.766 1.188-1.918 0-3.537-1.06-3.537-3.312v-5.721h1.941v5.264c0 1.153.794 2.003 2.094 2.003 1.393 0 2.27-.94 2.27-2.003v-5.264h1.936-.003zm-20.012 4.975h2.076c.018 1.35 1.165 2.182 2.94 2.182 1.776 0 3.03-.515 3.03-1.68 0-.977-.683-1.545-1.975-1.757l-2.094-.373c-2.43-.408-3.613-1.579-3.613-3.402 0-2.004 1.341-3.668 4.6-3.668 2.694 0 4.525 1.436 4.525 3.703h-2.077c0-1.206-.953-1.824-2.483-1.824-1.53 0-2.481.655-2.481 1.792 0 .958.7 1.348 2.006 1.579L51.8 17c2.364.425 3.647 1.68 3.647 3.574 0 2.004-1.605 3.574-5.072 3.574s-5.054-1.698-5.054-4.058v.006-.003zM29.94 9.362c-3.046 4.573-4.17 9.187-2.516 10.3 1.653 1.113 5.466-1.692 8.507-6.266 3.048-4.573 4.172-9.187 2.518-10.3-1.655-1.112-5.466 1.692-8.508 6.266zm-11.15-.297c0 5.004 1.615 9.062 3.605 9.062s3.606-4.058 3.606-9.062C26.002 4.06 24.39 0 22.4 0c-1.99 0-3.606 4.057-3.606 9.062l-.003.003zm-9.142 6.059c2.558 3.702 5.958 5.773 7.59 4.632 1.63-1.143.888-5.07-1.667-8.768-2.557-3.703-5.958-5.774-7.588-4.632-1.631 1.142-.89 5.069 1.665 8.768zm-3.777 10.11c3.76 1.326 7.34.866 7.995-1.028.657-1.893-1.855-4.494-5.617-5.82-3.76-1.325-7.34-.865-7.995 1.029-.658 1.893 1.853 4.494 5.616 5.82zm2.766 9.715c3.348-.964 5.622-3.311 5.072-5.234-.55-1.923-3.71-2.703-7.059-1.74-3.348.965-5.622 3.313-5.072 5.235.547 1.923 3.71 2.703 7.06 1.74zm7.824 5.992c1.819-2.383 2.007-5.301.434-6.519-1.572-1.218-4.33-.277-6.152 2.106-1.819 2.383-2.007 5.302-.434 6.52 1.575 1.217 4.33.277 6.152-2.107zm9.541-.108c0-2.502-1.616-4.532-3.606-4.532-1.99 0-3.606 2.03-3.606 4.532 0 2.502 1.616 4.533 3.606 4.533 1.99 0 3.606-2.03 3.606-4.533zm6.86-1.124a3.588 3.588 0 01-5.078-.437 3.636 3.636 0 01.434-5.106 3.59 3.59 0 015.078.437 3.636 3.636 0 01-.435 5.106z" fill="#1C1E26"/></svg>
